T: Water Under The Keel
M: 6/8
L: 1/8
K: Gmaj
|: gdc BdG | GAc BdG | gdc BdG | ABC def |gdc BdG | GAc BdG | gdB edc | dAd G3 :|||: afd g3 | afd gab | afd g3 | afd cdA |afd g3 | afd gab | afd g3 | afd cdA |afd g3 | afd gab | afd g3 | gec BcA |afd g3 | afd gab | 'cba bag | gec BcA |||: gdc BdG | GAc BdG | gdc BdG | ABC def |gdc BdG | GAc BdG | gdB edc | dAd G3 :|||: afd g3 | afd gab | afd g3 | afd cdA |afd gfd | afd gab | afd g3 | afd cdA |afd gfd | afd gab | afd g3 | afd cdA |afd gfd | afd gab | 'cba bag | afd cdA |||: gdc BdG | GAc BdG | gdc BdG | ABC def |gdc BdG | GAc BdG | gdB edc | dAd G3 :|||:afd cdf | gdc Bdg | afd cdf | gdc Bdg |afd cdf | gdc Bdg | afd cdf | gdc Bdg |afd cdf | gdc Bdg | afd cdf | gdc Bdg |afd cdf | gdc Bdg | afd cdf | gdc Bdg |afd cdf | gdc Bdg | afd cdf | gdc Bdg |afd cdf | gdc Bdg | afd gfd | a2b 'cba |afd cdf | gdc Bdg | afd cdf | gdc Bdg |afd cdf | gdc Bdg | afd gfd | afd gfd |||: gdc BdG | GAc BdG | gdB edc | dAd G3 ||
